X:1
T:Minuet. SenH.129, A
T:Minuet. SenH.129, A
T:in Hand C
C:in Hand C
L:1/8
Q:1/4=100
M:3/4
K:G
V:1 treble 
V:1
 G2 GGGG | B2 BBBB | d2 efga | f4 ed | b2 gabc' | b2 gabc' | d'2 c'2 b2 | a6 || a2 fgab | a2 fgab | %10
 a2 fgab | f4 d2 | b2 gabc' | b2 gabc' | b2 gabc' | d'6 | d'2 abc'd' | b2 e'2 e2 | a2 f4 | g6 |] %20

